X:0370
T:The Drunken Drummer.
M:6/8
L:1/8
Q:3/8=120
I: :: ::
Z:Jack Campin * www.campin.me.uk * 2009
K:G
d|BAG G2D|GAG B2d|BAG G2D| EFE E2d|\
  BAG G2D|GAG Bcd|efg dBG|TA3  G2:|
A|Bcd ded|ded dec|Bcd def| gdB A2G|\
  Bcd ded|ded def|gdB dBG| A3  G2:|

